Icons/com_google_android_docs_editors_docs.svg

<svg viewBox="0 0 48 48"><defs><linearGradient id="linearGradient3764" x1="1" x2="47" gradientUnits="userSpaceOnUse" gradientTransform="translate(-48.000001,0.00221467)"><stop stop-color="#5ba3f5" stop-opacity="1"/><stop offset="1" stop-color="#6dacf6" stop-opacity="1"/></linearGradient><clipPath id="clipPath-423742877"><g transform="translate(0,-1004.3622)"><rect rx="4" y="1005.36" x="1" height="46" width="46" fill="#1890d0"/></g></clipPath><clipPath id="clipPath-436419623"><g transform="translate(0,-1004.3622)"><rect rx="4" y="1005.36" x="1" height="46" width="46" fill="#1890d0"/></g></clipPath></defs><g><path d="m 1 43 l 0 0.25 c 0 2.216 1.784 4 4 4 l 38 0 c 2.216 0 4 -1.784 4 -4 l 0 -0.25 c 0 2.216 -1.784 4 -4 4 l -38 0 c -2.216 0 -4 -1.784 -4 -4 z m 0 0.5 l 0 0.5 c 0 2.216 1.784 4 4 4 l 38 0 c 2.216 0 4 -1.784 4 -4 l 0 -0.5 c 0 2.216 -1.784 4 -4 4 l -38 0 c -2.216 0 -4 -1.784 -4 -4 z" opacity="0.02"/><path d="m 1 43.25 l 0 0.25 c 0 2.216 1.784 4 4 4 l 38 0 c 2.216 0 4 -1.784 4 -4 l 0 -0.25 c 0 2.216 -1.784 4 -4 4 l -38 0 c -2.216 0 -4 -1.784 -4 -4 z" opacity="0.05"/><path d="m 1 43 l 0 0.25 c 0 2.216 1.784 4 4 4 l 38 0 c 2.216 0 4 -1.784 4 -4 l 0 -0.25 c 0 2.216 -1.784 4 -4 4 l -38 0 c -2.216 0 -4 -1.784 -4 -4 z" opacity="0.1"/></g><g><rect width="46" height="46" x="-47" y="1" rx="4" transform="matrix(0,-1,1,0,0,0)" fill="url(#linearGradient3764)" fill-opacity="1"/></g><g><g clip-path="url(#clipPath-423742877)"><g opacity="0.1"><!-- color: #6dacf6 --><g><path d="m 14 33 l 12 0 l 0 -2 l -12 0 m 0 2" fill="#000"/><path d="m 14 29 l 20 0 l 0 -2 l -20 0 m 0 2" fill="#000"/><path d="m 14 25 l 20 0 l 0 -2 l -20 0 m 0 2" fill="#000"/><path d="m 14 21 l 20 0 l 0 -2 l -20 0 m 0 2" fill="#000"/><path d="m 14 17 l 20 0 l 0 -2 l -20 0 m 0 2" fill="#000"/></g></g></g></g><g><g clip-path="url(#clipPath-436419623)"><g transform="translate(0,-1)"><!-- color: #6dacf6 --><g><path d="m 14 33 l 12 0 l 0 -2 l -12 0 m 0 2" fill="#f9f9f9"/><path d="m 14 29 l 20 0 l 0 -2 l -20 0 m 0 2" fill="#f9f9f9"/><path d="m 14 25 l 20 0 l 0 -2 l -20 0 m 0 2" fill="#f9f9f9"/><path d="m 14 21 l 20 0 l 0 -2 l -20 0 m 0 2" fill="#f9f9f9"/><path d="m 14 17 l 20 0 l 0 -2 l -20 0 m 0 2" fill="#f9f9f9"/></g></g></g></g><g><g transform="translate(0,-1004.3622)"><path d="m 1 1043.36 0 4 c 0 2.216 1.784 4 4 4 l 38 0 c 2.216 0 4 -1.784 4 -4 l 0 -4 c 0 2.216 -1.784 4 -4 4 l -38 0 c -2.216 0 -4 -1.784 -4 -4 z" opacity="0.1"/></g></g></svg>

<svg viewBox="0 0 48 48" xmlns:xlink="http://www.w3.org/1999/xlink">
 <defs>
  <linearGradient id="0">
   <stop stop-opacity="0"/>
   <stop offset="1"/>
  </linearGradient>
  <linearGradient xlink:href="#0" id="1" gradientUnits="userSpaceOnUse" gradientTransform="translate(4e-7,-48)" y1="47" x2="0" y2="1"/>
  <clipPath id="2">
   <g transform="translate(0,-1004.3622)">
    <rect rx="4" y="1005.36" x="1" height="46" width="46" fill="#1890d0"/>
   </g>
  </clipPath>
  <clipPath id="3">
   <g transform="translate(0,-1004.3622)">
    <rect rx="4" y="1005.36" x="1" height="46" width="46" fill="#1890d0"/>
   </g>
  </clipPath>
 </defs>
 <g>
  <g transform="translate(0,-1004.3622)">
   <path d="m 5,1006.3622 c -2.216,0 -4,1.784 -4,4 l 0,37.25 c 0,2.216 1.784,4 4,4 l 38,0 c 2.216,0 4,-1.784 4,-4 l 0,-37.25 c 0,-2.216 -1.784,-4 -4,-4 l -38,0 z m -4,41.5 0,0.5 c 0,2.216 1.784,4 4,4 l 38,0 c 2.216,0 4,-1.784 4,-4 l 0,-0.5 c 0,2.216 -1.784,4 -4,4 l -38,0 c -2.216,0 -4,-1.784 -4,-4 z" opacity="0.02"/>
   <path d="m 1,1047.6122 0,0.25 c 0,2.216 1.784,4 4,4 l 38,0 c 2.216,0 4,-1.784 4,-4 l 0,-0.25 c 0,2.216 -1.784,4 -4,4 l -38,0 c -2.216,0 -4,-1.784 -4,-4 z" opacity="0.05"/>
   <rect width="46" height="46" x="1" y="1005.61" rx="4" opacity="0.1"/>
  </g>
 </g>
 <g>
  <g transform="translate(0,-1004.3622)">
   <rect rx="4" y="1005.36" x="1" height="46" width="46" fill="#6dacf6"/>
  </g>
 </g>
 <g>
  <rect transform="scale(1,-1)" width="46" height="46" x="1" y="-46.998" rx="4" opacity="0.1" fill="url(#1)"/>
 </g>
 <g>
  <g clip-path="url(#2)">
   <g opacity="0.1">
    <g>
     <path d="M 14 33 L 26 33 L 26 31 L 14 31 Z M 14 33 "/>
     <path d="M 14 29 L 34 29 L 34 27 L 14 27 Z M 14 29 "/>
     <path d="M 14 25 L 34 25 L 34 23 L 14 23 Z M 14 25 "/>
     <path d="M 14 21 L 34 21 L 34 19 L 14 19 Z M 14 21 "/>
     <path d="M 14 17 L 34 17 L 34 15 L 14 15 Z M 14 17 "/>
    </g>
   </g>
  </g>
 </g>
 <g>
  <g clip-path="url(#3)">
   <g transform="translate(0,-1)">
    <g>
     <path d="M 14 33 L 26 33 L 26 31 L 14 31 Z M 14 33 " fill="#f9f9f9"/>
     <path d="M 14 29 L 34 29 L 34 27 L 14 27 Z M 14 29 " fill="#f9f9f9"/>
     <path d="M 14 25 L 34 25 L 34 23 L 14 23 Z M 14 25 " fill="#f9f9f9"/>
     <path d="M 14 21 L 34 21 L 34 19 L 14 19 Z M 14 21 " fill="#f9f9f9"/>
     <path d="M 14 17 L 34 17 L 34 15 L 14 15 Z M 14 17 " fill="#f9f9f9"/>
    </g>
   </g>
  </g>
 </g>
 <g>
  <g transform="translate(0,-1004.3622)">
   <path d="m 1,1043.3622 0,4 c 0,2.216 1.784,4 4,4 l 38,0 c 2.216,0 4,-1.784 4,-4 l 0,-4 c 0,2.216 -1.784,4 -4,4 l -38,0 c -2.216,0 -4,-1.784 -4,-4 z" opacity="0.1"/>
  </g>
 </g>
</svg>
